X:1
T:Title
%%score ( 1 2 ) 3
L:1/8
Q:1/4=75
M:6/8
K:Ab
V:1 treble nm="Strings 1, Soprano"
V:2 treble 
V:3 bass nm="Strings 1, Bass"
V:1
 [Ec]2 [Ec] [Ec]2 [EA] | [FA]2 [DF] [FA]3 | [CE]2 [CA] [Ec]2 [EA] | [Ec]2 [EB] [EB]3 | %4
w: 1.~In~ this~ wick ed~|world~ am~ I,~|Watch~ Thou~ o'er~ me~|from~ on~ high;~|
 [Ec]2 [Ae] [Ae]2 [Ec] | [EA]2 [EB] [Ec]3 | BA[DF] [CE]2 [Fd] | [Ec]2 [DB] [CA]3 | %8
w: Keep~ my~ soul,~ lest~|I~ should~ be~|Led~ * a stray,~ O~|Lord,~ from~ Thee.~|
 [CE]2 [CE] [CE]2 [CE] | [DF]2 [DA] [CE]3 | [CA]2 [CA] [Ec]2 [EA] | [EB]2 [Ec] [EB]3 | %12
w: ||||
 [Ec]2 [Ae] [Ae]2 [Ec] | [EA]2 [EB] [Ec]3 | BA[DF] [CE]2 [Fd] | [Ec]2 [DB] [CA]3 |] %16
w: ||||
V:2
 x6 | x6 | x6 | x6 | x6 | x6 | .F3 z3 | x6 | x6 | x6 | x6 | x6 | x6 | x6 | .F3 z3 | x6 |] %16
V:3
 [A,,A,]2 [A,,A,] [A,,A,]2 [C,A,] | [D,D]2 [D,A,] [D,A,]3 | [A,,A,]2 [A,,E,] [A,,A,]2 [C,A,] | %3
 [E,A,]2 [E,G,] [E,G,]3 | A,2 [A,C] [A,C]2 A, | [C,A,]2 [E,G,] A,3 | [D,D]2 [D,A,] [E,A,]2 [E,A,] | %7
 [E,A,]2 [E,G,] [A,,A,]3 | [A,,A,]2 [A,,A,] [A,,A,]2 [A,,A,] | [D,A,]2 [F,A,] A,3 | %10
 [A,,A,]2 [A,,A,] [A,,A,]2 [C,A,] | [E,G,]2 [E,A,] [E,G,]3 | A,2 [A,C] [A,C]2 A, | %13
 [C,A,]2 [E,G,] A,3 | [D,D]2 [D,A,] [E,A,]2 [E,A,] | [E,A,]2 [E,G,] [A,,A,]3 |] %16

